X:1
T:Title
%%score ( 1 2 ) ( 3 4 )
L:1/8
Q:1/4=90
M:4/4
K:C
V:1 treble nm="Strings 1, Soprano"
V:2 treble 
V:3 bass nm="Strings 1, Bass"
V:4 bass 
V:1
 [EG]>[FA] [EG]>[DF] [CE]2 [Ec]2 | [Fd]>[Fc] [Fc]>[FA] [EG]4 | [EG]>[CE] C>[CD] [CE]2 [EG]2 | %3
w: 1.~There's~ a~ peace ful~ val ley~|of~ de ci sion~ found,~|Where~ un bro ken~ fel low|
 [DF]>[CE] [B,D]>[_B,^C] [=B,D]4 | [EG]>[FA] [EG]>[DF] [CE]2 [Ec]2 | [Fd]>[Fc] [Fc]>[FA] [EG]4 | %6
w: ship~ and~ love~ a bound;~|Soft ly~ falls~ the~ glo ry~|of~ the~ eve ning~ light,~|
 [FA]>[FA] [^FA]>[FA] [GB]2 [=Fd]2 | [Ec]6 [EG]>[DF] | [CE]6 [CE]>[DF] | [EG]6 [DB]>[Ec] | %10
w: On~ its~ saints~ ar rayed~ in~|white.~ * *|||
 [Fd]6 [Ec]>[Fd] | [Ge]6 [Ge]>[Fd] | [Fc]6 [FA]>[FA] | [EG]6 [Gd]>[Ge] | [Gf]6 [FB]>[Fd] | c6 z2 |] %16
w: ||||||
V:2
 x8 | x8 | x8 | x8 | x8 | x8 | x8 | x8 | x8 | x8 | x8 | x8 | x8 | x8 | x8 | E2 F2 E2 z2 |] %16
V:3
 [C,C]>[C,C] [C,C]>[C,G,] [C,G,]2 [C,_B,]2 | [F,A,]>[F,A,] [F,A,]>[F,C] [C,C]4 | %2
 [C,C]>[C,G,] [C,E,]>[C,F,] [C,G,]2 [C,G,]2 | [G,,G,]>[G,,G,] [G,,G,]>[G,,G,] [G,,G,]4 | %4
 [C,C]>[C,C] [C,C]>[C,G,] [C,G,]2 [C,_B,]2 | [F,A,]>[F,A,] [F,A,]>[F,C] [C,C]4 | %6
 [F,C]>[F,C] [D,D]>[D,D] [G,D]2 [G,,G,]2 | [C,G,]6 C>G, | G,6 z2 | C6 z2 | B,6 z2 | %11
 C2 G,E, C,2 C>G, | A,6 z2 | C6 z2 | D6 z2 | G,2 z2 z4 |] %16
V:4
 x8 | x8 | x8 | x8 | x8 | x8 | x8 | x8 | z2 C,>C, C,2 [C,G,]>[C,G,] | C,2 C,2 C,2 G,>C | %10
 z2 G,>G, G,2 [G,C]>[G,B,] | x8 | z2 F,>F, F,2 [F,C]>[F,C] | C,2 C,2 C,2 B,>C | %14
 z2 G,>G, G,2 G,>G, | C,2- [C,-A,]2 [C,G,]2 z2 |] %16

